X: 22551
T: Lady L. Ramsay's
R: reel
M: 4/4
K: Gminor
e|Td2 (fd) ecce|Td2 fd gefe|Td2 (fd) ecge|dBcA TB2 B:|
B|(AB)GB FBDB|F>BdB cCTC>B|(AB)GB FBdB|FBAcTB2 Bd|
(AB)GB FBDB|FBdB cCTC>B|DFBF TG>ABg|fdec TB2 B||

